Include/imtgui/Resources/Icons/FullScreen.svg

<?xml version="1.0" encoding="UTF-8" standalone="no"?>
<!-- Generated by IcoMoon.io -->

<svg
   xmlns:dc="http://purl.org/dc/elements/1.1/"
   xmlns:cc="http://creativecommons.org/ns#"
   xmlns:rdf="http://www.w3.org/1999/02/22-rdf-syntax-ns#"
   xmlns:svg="http://www.w3.org/2000/svg"
   xmlns="http://www.w3.org/2000/svg"
   xmlns:sodipodi="http://sodipodi.sourceforge.net/DTD/sodipodi-0.dtd"
   xmlns:inkscape="http://www.inkscape.org/namespaces/inkscape"
   version="1.1"
   width="512px"
   height="512px"
   viewBox="0 0 16 16"
   id="svg10"
   sodipodi:docname="FullScreen.svg"
   inkscape:version="0.92.2 (5c3e80d, 2017-08-06)">
  <metadata
     id="metadata16">
    <rdf:RDF>
      <cc:Work
         rdf:about="">
        <dc:format>image/svg+xml</dc:format>
        <dc:type
           rdf:resource="http://purl.org/dc/dcmitype/StillImage" />
      </cc:Work>
    </rdf:RDF>
  </metadata>
  <defs
     id="defs14" />
  <sodipodi:namedview
     pagecolor="#ffffff"
     bordercolor="#666666"
     borderopacity="1"
     objecttolerance="10"
     gridtolerance="10"
     guidetolerance="10"
     inkscape:pageopacity="0"
     inkscape:pageshadow="2"
     inkscape:window-width="1920"
     inkscape:window-height="1028"
     id="namedview12"
     showgrid="false"
     inkscape:zoom="0.4609375"
     inkscape:cx="-538.0339"
     inkscape:cy="256"
     inkscape:window-x="-8"
     inkscape:window-y="-8"
     inkscape:window-maximized="1"
     inkscape:current-layer="svg10" />
  <g
     id="g819">
    <path
       style="fill:#335777;fill-opacity:1"
       id="path2"
       d="M5.3 6.7l1.4-1.4-3-3 1.3-1.3h-4v4l1.3-1.3z"
       fill="#335777" />
    <path
       style="fill:#335777;fill-opacity:1"
       id="path4"
       d="M6.7 10.7l-1.4-1.4-3 3-1.3-1.3v4h4l-1.3-1.3z"
       fill="#335777" />
    <path
       style="fill:#335777;fill-opacity:1"
       id="path6"
       d="M10.7 9.3l-1.4 1.4 3 3-1.3 1.3h4v-4l-1.3 1.3z"
       fill="#335777" />
    <path
       style="fill:#335777;fill-opacity:1"
       id="path8"
       d="M11 1l1.3 1.3-3 3 1.4 1.4 3-3 1.3 1.3v-4z"
       fill="#335777" />
  </g>
</svg>

<?xml version="1.0" encoding="UTF-8" standalone="no"?>
<!-- Generated by IcoMoon.io -->

<svg
   xmlns:dc="http://purl.org/dc/elements/1.1/"
   xmlns:cc="http://creativecommons.org/ns#"
   xmlns:rdf="http://www.w3.org/1999/02/22-rdf-syntax-ns#"
   xmlns:svg="http://www.w3.org/2000/svg"
   xmlns="http://www.w3.org/2000/svg"
   xmlns:sodipodi="http://sodipodi.sourceforge.net/DTD/sodipodi-0.dtd"
   xmlns:inkscape="http://www.inkscape.org/namespaces/inkscape"
   version="1.1"
   width="512px"
   height="512px"
   viewBox="0 0 16 16"
   id="svg10"
   sodipodi:docname="FullScreen.svg"
   inkscape:version="0.92.2 (5c3e80d, 2017-08-06)">
  <metadata
     id="metadata16">
    <rdf:RDF>
      <cc:Work
         rdf:about="">
        <dc:format>image/svg+xml</dc:format>
        <dc:type
           rdf:resource="http://purl.org/dc/dcmitype/StillImage" />
      </cc:Work>
    </rdf:RDF>
  </metadata>
  <defs
     id="defs14" />
  <sodipodi:namedview
     pagecolor="#ffffff"
     bordercolor="#666666"
     borderopacity="1"
     objecttolerance="10"
     gridtolerance="10"
     guidetolerance="10"
     inkscape:pageopacity="0"
     inkscape:pageshadow="2"
     inkscape:window-width="1920"
     inkscape:window-height="1148"
     id="namedview12"
     showgrid="false"
     inkscape:zoom="0.921875"
     inkscape:cx="-148.44276"
     inkscape:cy="121.26025"
     inkscape:window-x="-8"
     inkscape:window-y="-8"
     inkscape:window-maximized="1"
     inkscape:current-layer="svg10" />
  <g
     id="g819"
     transform="matrix(1.0699152,0,0,1.0726392,-0.5593216,-0.5811136)"
     style="stroke-width:0.93346596">
    <path
       style="fill:#335777;fill-opacity:1;stroke-width:0.93346596"
       id="path2"
       d="M 5.3,6.7 6.7,5.3 3.7,2.3 5,1 H 1 V 5 L 2.3,3.7 Z"
       inkscape:connector-curvature="0" />
    <path
       style="fill:#335777;fill-opacity:1;stroke-width:0.93346596"
       id="path4"
       d="M 6.7,10.7 5.3,9.3 2.3,12.3 1,11 v 4 H 5 L 3.7,13.7 Z"
       inkscape:connector-curvature="0" />
    <path
       style="fill:#335777;fill-opacity:1;stroke-width:0.93346596"
       id="path6"
       d="m 10.7,9.3 -1.4,1.4 3,3 L 11,15 h 4 v -4 l -1.3,1.3 z"
       inkscape:connector-curvature="0" />
    <path
       style="fill:#335777;fill-opacity:1;stroke-width:0.93346596"
       id="path8"
       d="m 11,1 1.3,1.3 -3,3 1.4,1.4 3,-3 L 15,5 V 1 Z"
       inkscape:connector-curvature="0" />
  </g>
</svg>
